apps/64/deepin-feedback.svg

<?xml version="1.0" standalone="no"?><!-- Generator: Gravit.io --><svg xmlns="http://www.w3.org/2000/svg" xmlns:xlink="http://www.w3.org/1999/xlink" style="isolation:isolate" viewBox="0 0 256 256" width="256" height="256"><defs><filter id="ASVNIqJzUV1wUwifPifj60zoFjZTxeeI" x="-200%" y="-200%" width="400%" height="400%" filterUnits="objectBoundingBox" color-interpolation-filters="sRGB"><feGaussianBlur xmlns="http://www.w3.org/2000/svg" in="SourceGraphic" stdDeviation="4.293609062839028"/><feOffset xmlns="http://www.w3.org/2000/svg" dx="0" dy="4" result="pf_100_offsetBlur"/><feFlood xmlns="http://www.w3.org/2000/svg" flood-color="#000000" flood-opacity="0.4"/><feComposite xmlns="http://www.w3.org/2000/svg" in2="pf_100_offsetBlur" operator="in" result="pf_100_dropShadow"/><feBlend xmlns="http://www.w3.org/2000/svg" in="SourceGraphic" in2="pf_100_dropShadow" mode="normal"/></filter></defs><g filter="url(#ASVNIqJzUV1wUwifPifj60zoFjZTxeeI)"><linearGradient id="_lgradient_5" x1="0" y1="0" x2="-1.8369701987210297e-16" y2="1" gradientTransform="matrix(244.648309,0,0,228.338396,5.68,11.95)" gradientUnits="userSpaceOnUse"><stop offset="0.000009999999999999999%" stop-opacity="1" style="stop-color:rgb(237,194,104)"/><stop offset="100%" stop-opacity="1" style="stop-color:rgb(155,116,36)"/></linearGradient><path d=" M 165.688919 11.95 C 239.744626 11.95 250.328309 22.507198 250.328309 96.493859 L 250.328309 155.744653 C 250.328309 229.73091 239.744626 240.288396 165.688919 240.288396 L 90.319393 240.288396 C 16.26369 240.288396 5.68 229.73091 5.68 155.744653 L 5.68 96.493859 C 5.68 22.507198 16.26369 11.95 90.319393 11.95 L 165.688919 11.95 Z " id="shape" fill="url(#_lgradient_5)"/></g><g opacity="0.4"><linearGradient id="_lgradient_6" x1="0.5166666666666668" y1="0" x2="0.5166666666666666" y2="1.0000000000000002" gradientTransform="matrix(244.65,0,0,228.34,5.68,11.95)" gradientUnits="userSpaceOnUse"><stop offset="0%" stop-opacity="1" style="stop-color:rgb(255,255,255)"/><stop offset="12.5%" stop-opacity="0.09803922" style="stop-color:rgb(255,255,255)"/><stop offset="92.500001%" stop-opacity="0.09803922" style="stop-color:rgb(0,0,0)"/><stop offset="100%" stop-opacity="0.49803922" style="stop-color:rgb(0,0,0)"/></linearGradient><path d=" M 165.06803 11.951234 C 169.395994 11.941409 173.723944 11.990533 178.051908 12.088781 C 181.927398 12.167379 185.802873 12.31475 189.678362 12.540721 C 193.1309 12.737216 196.583423 13.022134 200.026115 13.395476 C 203.085193 13.729518 206.144271 14.181458 209.173842 14.741469 C 211.888645 15.242533 214.57394 15.881143 217.219897 16.6573 C 219.619947 17.354858 221.970814 18.219439 224.242988 19.241215 C 226.357793 20.184394 228.384061 21.304417 230.302129 22.591462 C 232.141505 23.829383 233.862851 25.244151 235.436659 26.80629 C 237.000621 28.378252 238.417046 30.087764 239.656409 31.924995 C 240.944972 33.840824 242.066305 35.864728 243.020409 37.967229 C 244.043389 40.246576 244.908985 42.584873 245.617197 44.972292 C 246.394255 47.615155 247.033606 50.297317 247.535265 53.008956 C 248.095924 56.034984 248.548399 59.080665 248.882828 62.13617 C 249.256611 65.574836 249.541856 69.013506 249.738578 72.462003 C 249.964823 76.323139 250.112361 80.194101 250.200884 84.055237 C 250.289421 88.378131 250.338591 92.701032 250.32876 97.014106 L 250.32876 155.225886 C 250.338591 159.54878 250.289421 163.861854 250.200884 168.184747 C 250.112361 172.05571 249.964823 175.916853 249.738578 179.777981 C 249.541856 183.226485 249.256611 186.674975 248.882828 190.103826 C 248.548399 193.15933 248.095924 196.214835 247.535265 199.240851 C 247.033606 201.942664 246.394255 204.624837 245.617197 207.267703 C 244.908985 209.655115 244.043389 212.003235 243.020409 214.272755 C 242.066305 216.38509 240.944972 218.399156 239.656409 220.314999 C 238.417046 222.152226 237.000621 223.871561 235.436659 225.433697 C 233.862851 226.995832 232.141505 228.410601 230.302129 229.648532 C 228.384061 230.935575 226.357793 232.055598 224.242988 232.998768 C 221.970814 234.020552 219.619947 234.885137 217.219897 235.592507 C 214.57394 236.368672 211.888645 237.007276 209.173842 237.498515 C 206.144271 238.068354 203.085193 238.510465 200.026115 238.844519 C 196.583423 239.21785 193.1309 239.502777 189.678362 239.699269 C 185.802873 239.925235 181.927398 240.072615 178.051908 240.161035 C 173.723944 240.249454 169.395994 240.298581 165.06803 240.288762 L 90.941963 240.288762 C 86.614006 240.298581 82.286049 240.249454 77.9581 240.161035 C 74.08261 240.072615 70.20712 239.925235 66.331638 239.699269 C 62.879108 239.502777 59.426578 239.21785 55.983886 238.844519 C 52.924808 238.510465 49.865733 238.068354 46.836162 237.498515 C 44.121356 237.007276 41.436057 236.368672 38.7901 235.592507 C 36.390053 234.885137 34.039187 234.020552 31.767009 232.998768 C 29.652213 232.055598 27.625943 230.935575 25.707871 229.648532 C 23.868489 228.410601 22.147143 226.995832 20.573343 225.433697 C 19.009377 223.871561 17.592955 222.152226 16.353586 220.314999 C 15.065036 218.399156 13.943701 216.38509 12.989584 214.272755 C 11.966612 212.003235 11.101021 209.655115 10.392811 207.267703 C 9.615746 204.624837 8.976389 201.942664 8.47474 199.240851 C 7.914072 196.214835 7.461604 193.15933 7.127172 190.103826 C 6.753394 186.674975 6.468142 183.226485 6.271417 179.777981 C 6.045183 175.916853 5.897639 172.05571 5.809112 168.184747 C 5.720586 163.861854 5.671405 159.54878 5.681241 155.225886 L 5.681241 97.014106 C 5.671405 92.701032 5.720586 88.378131 5.809112 84.055237 C 5.897639 80.194101 6.045183 76.323139 6.271417 72.462003 C 6.468142 69.013506 6.753394 65.574836 7.127172 62.13617 C 7.461604 59.080665 7.914072 56.034984 8.47474 53.008956 C 8.976389 50.297317 9.615746 47.615155 10.392811 44.972292 C 11.101021 42.584873 11.966612 40.246576 12.989584 37.967229 C 13.943701 35.864728 15.065036 33.840824 16.353586 31.924995 C 17.592955 30.087764 19.009377 28.378252 20.573343 26.80629 C 22.147143 25.244151 23.868489 23.829383 25.707871 22.591462 C 27.625943 21.304417 29.652213 20.184394 31.767009 19.241215 C 34.039187 18.219439 36.390053 17.354858 38.7901 16.6573 C 41.436057 15.881143 44.121356 15.242533 46.836162 14.741469 C 49.865733 14.181458 52.924808 13.729518 55.983886 13.395476 C 59.426578 13.022134 62.879108 12.737216 66.331638 12.540721 C 70.20712 12.31475 74.08261 12.167379 77.9581 12.088781 C 82.286049 11.990533 86.614006 11.941409 90.941963 11.951234 L 165.06803 11.951234 Z  M 165.077876 15.959741 C 169.376317 15.949916 173.674759 15.99904 177.973216 16.087463 C 181.799522 16.175886 185.625827 16.323257 189.452133 16.539402 C 192.835809 16.735898 196.219486 17.010992 199.583486 17.384332 C 202.554026 17.698726 205.514751 18.131016 208.445953 18.681203 C 211.023049 19.152792 213.580483 19.761928 216.098564 20.498786 C 218.321569 21.147221 220.495374 21.952852 222.600334 22.896029 C 224.508571 23.750785 226.338116 24.762737 228.069293 25.922059 C 229.692286 27.012609 231.207063 28.260355 232.59398 29.645648 C 233.980897 31.030941 235.230091 32.543956 236.331763 34.165043 C 237.492434 35.894202 238.505568 37.711787 239.361333 39.607968 C 240.305606 41.720292 241.112187 43.891565 241.761369 46.102139 C 242.508934 48.617282 243.108947 51.161898 243.590914 53.735987 C 244.131912 56.663768 244.564709 59.6112 244.889308 62.578282 C 245.263091 65.938355 245.538505 69.308252 245.735227 72.687976 C 245.951626 76.509812 246.10901 80.321821 246.187687 84.143656 C 246.276225 88.437084 246.325394 92.720685 246.325394 97.014106 C 246.325394 97.014106 246.325394 97.014106 246.325394 97.014106 L 246.325394 155.225886 C 246.325394 155.225886 246.325394 155.225886 246.325394 155.225886 C 246.325394 159.519306 246.276225 163.802907 246.187687 168.096328 C 246.10901 171.918164 245.951626 175.739999 245.735227 179.552015 C 245.538505 182.931739 245.263091 186.301629 244.889308 189.671533 C 244.564709 192.628784 244.131912 195.576216 243.590914 198.503994 C 243.108947 201.078094 242.508934 203.622706 241.761369 206.137845 C 241.112187 208.358253 240.305606 210.5197 239.361333 212.63202 C 238.505568 214.528209 237.492434 216.355617 236.331763 218.074952 C 235.230091 219.705853 233.980897 221.218876 232.59398 222.604172 C 231.207063 223.979634 229.692286 225.227385 228.069293 226.317935 C 226.338116 227.477251 224.508571 228.489201 222.600334 229.343951 C 220.495374 230.296956 218.321569 231.092775 216.098564 231.741198 C 213.580483 232.478056 211.023049 233.087202 208.445953 233.558787 C 205.514751 234.108972 202.554026 234.541264 199.583486 234.865483 C 196.219486 235.228995 192.835809 235.513922 189.452133 235.70058 C 185.625827 235.916726 181.799522 236.073926 177.973216 236.152526 C 173.674759 236.25078 169.376317 236.290072 165.077876 236.290072 C 165.077876 236.290072 165.077876 236.290072 165.06803 236.290072 L 90.941963 236.290072 C 90.932125 236.290072 90.932125 236.290072 90.932125 236.290072 C 86.633683 236.290072 82.335234 236.25078 78.036784 236.152526 C 74.210479 236.073926 70.384173 235.916726 66.557868 235.70058 C 63.174195 235.513922 59.790522 235.228995 56.426518 234.865483 C 53.455967 234.541264 50.495253 234.108972 47.564048 233.558787 C 44.986944 233.087202 42.429517 232.478056 39.911433 231.741198 C 37.688439 231.092775 35.514626 230.296956 33.409665 229.343951 C 31.501429 228.489201 29.671886 227.477251 27.940703 226.317935 C 26.31772 225.227385 24.802935 223.979634 23.416022 222.604172 C 22.029109 221.218876 20.779904 219.705853 19.678243 218.074952 C 18.517564 216.355617 17.504428 214.528209 16.648674 212.63202 C 15.704392 210.5197 14.897819 208.358253 14.248626 206.137845 C 13.50107 203.622706 12.901057 201.078094 12.419081 198.503994 C 11.878086 195.576216 11.445291 192.628784 11.120694 189.671533 C 10.746916 186.301629 10.471501 182.931739 10.274776 179.552015 C 10.058378 175.739999 9.900997 171.918164 9.822307 168.096328 C 9.733781 163.802907 9.6846 159.519306 9.6846 155.225886 C 9.6846 155.225886 9.6846 155.225886 9.6846 155.225886 L 9.6846 97.014106 C 9.6846 97.014106 9.6846 97.014106 9.6846 97.014106 C 9.6846 92.720685 9.733781 88.437084 9.822307 84.143656 C 9.900997 80.321821 10.058378 76.509812 10.274776 72.687976 C 10.471501 69.308252 10.746916 65.938355 11.120694 62.578282 C 11.445291 59.6112 11.878086 56.663768 12.419081 53.735987 C 12.901057 51.161898 13.50107 48.617282 14.248626 46.102139 C 14.897819 43.891565 15.704392 41.720292 16.648674 39.607968 C 17.504428 37.711787 18.517564 35.894202 19.678243 34.165043 C 20.779904 32.543956 22.029109 31.030941 23.416022 29.645648 C 24.802935 28.260355 26.31772 27.012609 27.940703 25.922059 C 29.671886 24.762737 31.501429 23.750785 33.409665 22.896029 C 35.514626 21.952852 37.688439 21.147221 39.911433 20.498786 C 42.429517 19.761928 44.986944 19.152792 47.564048 18.681203 C 50.495253 18.131016 53.455967 17.698726 56.426518 17.384332 C 59.790522 17.010992 63.174195 16.735898 66.557868 16.539402 C 70.384173 16.323257 74.210479 16.175886 78.036784 16.087463 C 82.335234 15.99904 86.633683 15.949916 90.932125 15.959741 C 90.932125 15.959741 90.932125 15.959741 90.941963 15.959741 L 165.06803 15.959741 C 165.077876 15.959741 165.077876 15.959741 165.077876 15.959741 Z " fill-rule="evenodd" id="highlight" fill="url(#_lgradient_6)"/></g><g id="deepin feedback"><defs><filter id="J380ErNw6v9iO8IMIYazApoyZBQ9HwFX" x="-200%" y="-200%" width="400%" height="400%" filterUnits="objectBoundingBox" color-interpolation-filters="sRGB"><feGaussianBlur xmlns="http://www.w3.org/2000/svg" stdDeviation="4.293609062839028"/></filter></defs><g opacity="0.4" filter="url(#J380ErNw6v9iO8IMIYazApoyZBQ9HwFX)"><path d=" M 99.444988 197.592455 C 108.277512 201.120117 117.913841 203.061396 127.999998 203.061396 C 170.547691 203.061396 205.09061 168.518478 205.09061 125.970785 C 205.09061 83.423099 170.547691 48.88018 127.999998 48.88018 C 85.452312 48.88018 50.90939 83.423099 50.90939 125.970785 C 50.90939 150.878296 62.747856 173.042596 81.104256 187.133891 C 79.789791 197.642232 74.707997 205.493062 68.675846 210.01718 C 77.811647 212.076439 89.290614 207.476734 99.444988 197.592455 L 99.444988 197.592455 Z " fill-rule="evenodd" id="dialog shadow" fill="rgb(0,0,0)"/></g><linearGradient id="_lgradient_7" x1="0" y1="0" x2="-1.8369701987210297e-16" y2="1" gradientTransform="matrix(154.181219,0,0,161.61982,50.90939,45.5)" gradientUnits="userSpaceOnUse"><stop offset="0.000009999999999999999%" stop-opacity="1" style="stop-color:rgb(224,229,231)"/><stop offset="100%" stop-opacity="1" style="stop-color:rgb(199,206,210)"/></linearGradient><path d=" M 99.444988 194.212275 C 108.277512 197.739937 117.913841 199.681216 127.999998 199.681216 C 170.547691 199.681216 205.09061 165.138297 205.09061 122.590604 C 205.09061 80.042919 170.547691 45.5 127.999998 45.5 C 85.452312 45.5 50.90939 80.042919 50.90939 122.590604 C 50.90939 147.498116 62.747856 169.662416 81.104256 183.75371 C 79.789791 194.262052 74.707997 202.112881 68.675846 206.637 C 77.811647 208.696259 89.290614 204.096553 99.444988 194.212275 L 99.444988 194.212275 Z " fill-rule="evenodd" id="dialog" fill="url(#_lgradient_7)"/><linearGradient id="_lgradient_8" x1="0.1872007904071049" y1="0.004591415078774919" x2="0.19012044981699755" y2="0.9987354393337129" gradientTransform="matrix(125.427101,0,0,125.427097,65.28645,59.877059)" gradientUnits="userSpaceOnUse"><stop offset="0%" stop-opacity="1" style="stop-color:rgb(7,179,255)"/><stop offset="100%" stop-opacity="1" style="stop-color:rgb(0,125,232)"/></linearGradient><path d=" M 65.28645 122.590604 C 65.28645 87.978555 93.387942 59.877059 127.999998 59.877059 C 162.612048 59.877059 190.71355 87.978555 190.71355 122.590604 C 190.71355 157.203582 162.612048 185.304157 127.999998 185.304157 C 93.387942 185.304157 65.28645 157.203582 65.28645 122.590604 Z " fill-rule="evenodd" id="ellipse" fill="url(#_lgradient_8)"/><linearGradient id="_lgradient_9" x1="0" y1="0" x2="-1.8369701987210297e-16" y2="1" gradientTransform="matrix(108.595389,0,0,108.598097,73.702335,68.292941)" gradientUnits="userSpaceOnUse"><stop offset="0.000009999999999999999%" stop-opacity="1" style="stop-color:rgb(224,229,231)"/><stop offset="100%" stop-opacity="1" style="stop-color:rgb(199,206,210)"/></linearGradient><path d=" M 150.522865 73.17102 C 143.662021 70.038804 136.035182 68.292941 127.999998 68.292941 C 125.741631 68.292941 123.514602 68.43121 121.329972 68.69945 C 113.249618 79.875155 109.062877 98.023234 109.396562 109.140863 C 109.396562 109.140863 108.862847 125.660146 120.186041 131.519919 C 120.186041 131.519919 130.363447 135.981363 137.298035 121.552677 C 137.298035 121.552677 142.064569 113.410562 140.124218 95.008076 C 140.124218 95.008076 141.980697 95.335313 142.190861 95.628433 C 142.400096 95.919719 146.290024 109.79625 143.557868 121.482624 C 143.557868 121.482624 141.040474 135.214438 128.67014 138.354953 C 116.304404 141.496396 106.666241 133.897208 100.1225 126.740473 C 95.266539 121.429162 88.065568 107.195899 84.489043 90.10603 C 77.714856 99.165322 73.702335 110.41108 73.702335 122.593375 C 73.702335 131.047972 75.634394 139.050904 79.081863 146.1855 C 90.953512 149.715019 121.689467 156.777713 141.204546 142.475326 C 154.054212 133.055611 152.398684 117.972474 152.398684 117.972474 C 152.185763 106.499955 145.201398 95.102096 145.201398 95.102096 C 172.362678 119.675008 156.308894 146.972707 156.308894 146.972707 C 148.855353 162.196891 133.555581 171.948435 120.141791 176.325979 C 122.70712 176.698386 125.331438 176.891038 127.999998 176.891038 C 157.987461 176.891038 182.297661 152.581766 182.297661 122.593375 C 182.31641 110.223048 178.09336 98.22024 170.332914 88.586928 C 167.667117 88.771289 164.568081 88.880056 161.351051 88.774053 C 161.351051 88.774053 146.899333 89.448801 138.795933 93.490824 C 138.795933 93.490824 132.753634 96.186116 126.713185 100.754476 C 126.713185 100.754476 125.430985 101.395116 125.492746 103.749352 C 125.54805 106.097132 124.263087 112.355122 119.983247 116.022896 C 119.983247 116.022896 116.928454 117.593618 118.455854 119.840929 C 118.455854 119.840929 120.518805 122.836726 123.424267 119.690677 C 123.424267 119.690677 130.918366 111.98088 131.376486 99.557076 C 131.376486 99.557076 133.74732 97.53284 137.491602 96.93645 C 137.491602 96.93645 138.181097 115.573988 128.931923 124.931943 C 128.931923 124.931943 120.134421 134.512959 117.30731 120.290759 C 117.30731 120.290759 113.86629 106.740535 131.607861 90.648965 C 131.607861 90.648965 143.484123 78.78745 150.522865 73.17102 L 150.522865 73.17102 Z " fill-rule="evenodd" id="deepin logo" fill="url(#_lgradient_9)"/></g></svg>

<svg xmlns="http://www.w3.org/2000/svg" style="isolation:isolate" width="256" height="256"><g filter="url(#a)"><linearGradient id="b" x1=".51" y1="1.06" x2=".512" y2=".218" gradientTransform="matrix(244.648 0 0 228.338 5.676 11.947)" gradientUnits="userSpaceOnUse"><stop offset="0%" stop-color="#009a56"/><stop offset="100%" stop-color="#46a926"/></linearGradient><path d="M165.685 11.947c74.055 0 84.639 10.557 84.639 84.544v59.251c0 73.986-10.584 84.543-84.639 84.543h-75.37c-74.055 0-84.639-10.557-84.639-84.543V96.491c0-73.987 10.584-84.544 84.639-84.544h75.37z" fill="url(#b)"/></g><defs><filter id="a" x="-200%" y="-200%" width="400%" height="400%" filterUnits="objectBoundingBox" color-interpolation-filters="sRGB"><feGaussianBlur xmlns="http://www.w3.org/2000/svg" in="SourceGraphic" stdDeviation="4.294"/><feOffset xmlns="http://www.w3.org/2000/svg" dy="4" result="pf_100_offsetBlur"/><feFlood xmlns="http://www.w3.org/2000/svg" flood-color="#000" flood-opacity=".4"/><feComposite xmlns="http://www.w3.org/2000/svg" in2="pf_100_offsetBlur" operator="in" result="pf_100_dropShadow"/><feBlend xmlns="http://www.w3.org/2000/svg" in="SourceGraphic" in2="pf_100_dropShadow"/></filter></defs><path d="M6.357 83.58l205.409 153.03c-11.562 2.311-26.426 3.019-45.523 3.019h-75.37c-74.055 0-84.639-10.558-84.639-84.544V95.834c0-4.303.041-8.37.123-12.254z" fill="#FFF" opacity=".1"/><linearGradient id="c" x1=".233" y1="-.071" x2=".91" y2="1.01" gradientTransform="matrix(167.264 0 0 175.3338 44.368 42.333)" gradientUnits="userSpaceOnUse"><stop offset="0%" stop-color="#e8e8e8"/><stop offset="100%" stop-color="#f5f5f5"/></linearGradient><path d="M97.022 203.664c9.582 3.827 20.036 5.933 30.978 5.933 46.158 0 83.632-37.474 83.632-83.632 0-46.158-37.474-83.632-83.632-83.632-46.158 0-83.632 37.474-83.632 83.632 0 27.021 12.843 51.066 32.757 66.353-1.426 11.4-6.939 19.917-13.483 24.825 9.911 2.234 22.364-2.756 33.38-13.479zm55.412-131.312c-7.443-3.398-15.717-5.292-24.434-5.292-2.45 0-4.866.15-7.236.441-8.766 12.124-13.308 31.812-12.946 43.873 0 0-.579 17.921 11.705 24.278 0 0 11.041 4.84 18.564-10.813 0 0 5.171-8.833 3.066-28.797 0 0 2.014.355 2.242.673.227.316 4.447 15.37 1.483 28.048 0 0-2.731 14.897-16.151 18.304-13.415 3.408-23.871-4.836-30.97-12.6-5.268-5.762-13.08-21.203-16.96-39.743-7.349 9.828-11.702 22.028-11.702 35.244 0 9.172 2.096 17.854 5.836 25.594 12.879 3.829 46.223 11.491 67.394-4.025 13.94-10.219 12.144-26.582 12.144-26.582-.231-12.446-7.808-24.811-7.808-24.811 29.466 26.658 12.05 56.272 12.05 56.272-8.086 16.516-24.684 27.095-39.236 31.844 2.783.404 5.63.613 8.525.613 32.532 0 58.905-26.372 58.905-58.905a58.665 58.665 0 0 0-12.98-36.892c-2.892.2-6.254.318-9.744.203 0 0-15.678.732-24.469 5.117 0 0-6.555 2.924-13.108 7.88 0 0-1.391.695-1.324 3.249.06 2.547-1.334 9.336-5.977 13.315 0 0-3.314 1.704-1.657 4.142 0 0 2.238 3.25 5.39-.163 0 0 8.13-8.364 8.627-21.842 0 0 2.572-2.196 6.634-2.843 0 0 .748 20.219-9.286 30.371 0 0-9.544 10.394-12.611-5.035 0 0-3.733-14.7 15.514-32.157 0 0 12.884-12.868 20.52-18.961zM128 190.763c-35.786 0-64.795-29.01-64.795-64.795 0-35.786 29.01-64.798 64.795-64.798 35.786 0 64.796 29.012 64.796 64.798 0 35.785-29.01 64.795-64.796 64.795zm-68.035-64.798c0-37.549 30.486-68.035 68.035-68.035 37.549 0 68.035 30.486 68.035 68.035 0 37.55-30.486 68.035-68.035 68.035-37.549 0-68.035-30.485-68.035-68.035z" fill-rule="evenodd" fill="url(#c)"/><g opacity=".4"><linearGradient id="d" x1=".517" x2=".517" y2="1" gradientTransform="matrix(244.65 0 0 228.34 5.68 11.95)" gradientUnits="userSpaceOnUse"><stop offset="0%" stop-color="#fff"/><stop offset="12.5%" stop-opacity=".098" stop-color="#fff"/><stop offset="92.5%" stop-opacity=".098"/><stop offset="100%" stop-opacity=".498"/></linearGradient><path d="M165.068 11.951c4.328-.01 8.656.04 12.984.138 3.875.078 7.75.226 11.626.452 3.453.196 6.905.481 10.348.854 3.06.335 6.118.786 9.148 1.346a80.47 80.47 0 0 1 8.046 1.916 53.64 53.64 0 0 1 7.023 2.584 40.413 40.413 0 0 1 6.06 3.35 35.176 35.176 0 0 1 5.134 4.215 35.072 35.072 0 0 1 4.22 5.119 41.692 41.692 0 0 1 3.363 6.042 55.982 55.982 0 0 1 2.597 7.005 80.224 80.224 0 0 1 1.918 8.037 124.43 124.43 0 0 1 1.348 9.127c.374 3.439.659 6.878.856 10.326.226 3.861.373 7.732.462 11.593.088 4.323.138 8.646.128 12.96v58.21c.01 4.324-.04 8.637-.128 12.96a325.177 325.177 0 0 1-.462 11.593 200.984 200.984 0 0 1-.856 10.326 124.691 124.691 0 0 1-1.348 9.137 80.687 80.687 0 0 1-1.918 8.027 55.414 55.414 0 0 1-2.597 7.005 41.18 41.18 0 0 1-3.364 6.042 34.559 34.559 0 0 1-4.22 5.119 35.177 35.177 0 0 1-5.134 4.215 40.412 40.412 0 0 1-6.059 3.35 55.138 55.138 0 0 1-7.023 2.594 77.806 77.806 0 0 1-8.046 1.906 120 120 0 0 1-9.148 1.346c-3.443.373-6.895.658-10.348.854-3.875.226-7.75.374-11.626.462-4.328.088-8.656.138-12.984.128H90.942c-4.328.01-8.656-.04-12.984-.128a328.387 328.387 0 0 1-11.626-.462 203.003 203.003 0 0 1-10.348-.854 120 120 0 0 1-9.148-1.346 77.806 77.806 0 0 1-8.046-1.906 55.139 55.139 0 0 1-7.023-2.594 40.413 40.413 0 0 1-6.06-3.35 35.176 35.176 0 0 1-5.134-4.215 34.56 34.56 0 0 1-4.22-5.119 41.183 41.183 0 0 1-3.363-6.042 55.415 55.415 0 0 1-2.597-7.005 80.682 80.682 0 0 1-1.918-8.027 124.688 124.688 0 0 1-1.348-9.137 200.993 200.993 0 0 1-.856-10.326 325.212 325.212 0 0 1-.462-11.593 569.197 569.197 0 0 1-.128-12.96v-58.21c-.01-4.314.04-8.637.128-12.96.089-3.86.236-7.732.462-11.593.197-3.448.482-6.887.856-10.326.335-3.055.787-6.101 1.348-9.127a80.219 80.219 0 0 1 1.918-8.037 55.983 55.983 0 0 1 2.597-7.005 41.695 41.695 0 0 1 3.364-6.042 35.072 35.072 0 0 1 4.22-5.119 35.176 35.176 0 0 1 5.134-4.215 40.413 40.413 0 0 1 6.059-3.35 53.64 53.64 0 0 1 7.023-2.584 80.47 80.47 0 0 1 8.046-1.916 125.11 125.11 0 0 1 9.148-1.346c3.443-.373 6.895-.658 10.348-.854 3.875-.226 7.75-.374 11.626-.452 4.328-.098 8.656-.148 12.984-.138h74.126zm.01 4.009c4.298-.01 8.597.039 12.895.127 3.827.089 7.653.236 11.48.452 3.383.197 6.766.472 10.13.845 2.971.315 5.932.747 8.863 1.297a75.943 75.943 0 0 1 7.653 1.818 50.493 50.493 0 0 1 6.501 2.397 37.038 37.038 0 0 1 5.47 3.026 30.383 30.383 0 0 1 4.524 3.724 31.05 31.05 0 0 1 3.738 4.519 37.271 37.271 0 0 1 3.03 5.443 51.46 51.46 0 0 1 2.4 6.494 75.563 75.563 0 0 1 1.829 7.634c.54 2.928.974 5.875 1.298 8.842.374 3.36.65 6.73.846 10.11.217 3.822.374 7.634.453 11.456.088 4.293.137 8.577.137 12.87v58.212c0 4.293-.049 8.577-.137 12.87a317.503 317.503 0 0 1-.453 11.456c-.196 3.38-.472 6.75-.846 10.12a121.689 121.689 0 0 1-1.298 8.832 75.562 75.562 0 0 1-1.83 7.634 50.902 50.902 0 0 1-2.4 6.494 36.767 36.767 0 0 1-3.03 5.443 30.615 30.615 0 0 1-3.737 4.53 30.938 30.938 0 0 1-4.525 3.713 37.038 37.038 0 0 1-5.469 3.026 49.07 49.07 0 0 1-6.501 2.397 75.942 75.942 0 0 1-7.653 1.818c-2.931.55-5.892.982-8.863 1.306-3.364.364-6.747.649-10.13.836-3.827.216-7.653.373-11.48.452-4.298.098-8.597.137-12.895.137H90.932c-4.298 0-8.597-.04-12.895-.137a320.093 320.093 0 0 1-11.48-.452 193.696 193.696 0 0 1-10.13-.836 116.71 116.71 0 0 1-8.863-1.306 75.942 75.942 0 0 1-7.653-1.818 49.07 49.07 0 0 1-6.501-2.397 37.038 37.038 0 0 1-5.47-3.026 30.938 30.938 0 0 1-4.524-3.714 30.615 30.615 0 0 1-3.738-4.529 36.766 36.766 0 0 1-3.03-5.443 50.903 50.903 0 0 1-2.4-6.494 75.567 75.567 0 0 1-1.829-7.634 121.69 121.69 0 0 1-1.298-8.832c-.374-3.37-.65-6.74-.846-10.12a317.535 317.535 0 0 1-.453-11.456 623.851 623.851 0 0 1-.137-12.87V97.014c0-4.293.049-8.577.137-12.87.079-3.822.236-7.634.453-11.456.197-3.38.472-6.75.846-10.11.324-2.967.757-5.914 1.298-8.842a75.568 75.568 0 0 1 1.83-7.634 51.46 51.46 0 0 1 2.4-6.494 37.27 37.27 0 0 1 3.03-5.443 31.05 31.05 0 0 1 3.737-4.52 30.384 30.384 0 0 1 4.525-3.723 37.039 37.039 0 0 1 5.469-3.026 50.494 50.494 0 0 1 6.501-2.397 75.943 75.943 0 0 1 7.653-1.818c2.931-.55 5.892-.982 8.863-1.297 3.364-.373 6.747-.648 10.13-.845a344.71 344.71 0 0 1 11.48-.452c4.298-.088 8.597-.137 12.895-.127H165.078z" fill-rule="evenodd" fill="url(#d)"/></g></svg>
